icons/cross_country_motorcycle_fill.svg

<svg width="48" height="48" viewBox="0 0 48 48" fill="none" xmlns="http://www.w3.org/2000/svg">
<path fill-rule="evenodd" clip-rule="evenodd" d="M28 10C28.3895 10 28.7435 10.2261 28.9073 10.5795L35.7061 25.2507C36.2759 25.0874 36.8778 25 37.5 25C41.0899 25 44 27.9101 44 31.5C44 35.0899 41.0899 38 37.5 38C33.9101 38 31 35.0899 31 31.5C31 29.2451 32.1482 27.2583 33.8919 26.0925L27.3613 12H23V10H28ZM35.1824 28.8772C34.4572 29.5185 34 30.4558 34 31.5C34 33.433 35.567 35 37.5 35C39.433 35 41 33.433 41 31.5C41 29.567 39.433 28 37.5 28C37.3291 28 37.1611 28.0122 36.9968 28.0359L38.4073 31.0795C38.6395 31.5806 38.4216 32.1751 37.9205 32.4073C37.4194 32.6395 36.8249 32.4216 36.5927 31.9205L35.1824 28.8772Z" fill="black"/>
<path fill-rule="evenodd" clip-rule="evenodd" d="M16.9236 32.5C16.4425 35.6151 13.7498 38 10.5 38C6.91015 38 4 35.0899 4 31.5C4 27.9101 6.91015 25 10.5 25C13.7498 25 16.4425 27.3849 16.9236 30.5H20V29C20 27.8954 20.8954 27 22 27H28V31C28 32.1046 27.1046 33 26 33H22C21.4857 33 21.0167 32.8059 20.6624 32.4869C20.6095 32.4955 20.5553 32.5 20.5 32.5H16.9236ZM10.5 35C8.567 35 7 33.433 7 31.5C7 29.567 8.567 28 10.5 28C12.0855 28 13.4248 29.0543 13.8551 30.5H10.5C9.94775 30.5 9.50004 30.9477 9.50004 31.5C9.50004 32.0523 9.94775 32.5 10.5 32.5H13.8551C13.4248 33.9457 12.0855 35 10.5 35Z" fill="black"/>
<path d="M28.0528 23.8944L29.0528 21.8944C29.3343 21.3314 29.3343 20.6686 29.0528 20.1056L28.0528 18.1056C27.714 17.428 27.0215 17 26.2639 17H22.9827C22.1112 17 21.2455 17.1424 20.4199 17.4216L17.275 18.4852C16.6399 18.6999 16.3919 19.4665 16.7808 20.0126L20.0342 24.5802C20.2218 24.8436 20.5253 25 20.8487 25H26.2639C27.0215 25 27.714 24.572 28.0528 23.8944Z" fill="black"/>
<path d="M13.8836 19.3833C13.694 19.1414 13.4037 19 13.0964 19H5C4.44771 19 4 19.4477 4 20V21.605C4 22.1145 4.38314 22.5426 4.88957 22.5988L16.3174 23.8686C16.7577 23.9175 17.0394 23.4121 16.7663 23.0633L13.8836 19.3833Z" fill="black"/>
<path d="M37.6493 15.2133C37.5557 15.0796 37.4028 15 37.2397 15H33.309C32.9373 15 32.6956 15.3912 32.8618 15.7236L34.8618 19.7236C34.9465 19.893 35.1196 20 35.309 20H40.0397C40.4442 20 40.6813 19.5447 40.4493 19.2133L37.6493 15.2133Z" fill="black"/>
</svg>

<svg
  xmlns="http://www.w3.org/2000/svg"
  width="24"
  height="24"
  viewBox="0 0 24 24"
  fill="none"
  stroke="currentColor"
  stroke-width="2"
  stroke-linecap="round"
  stroke-linejoin="round"
>
  <path
    fill-rule="evenodd"
    d="M28 10a1 1 0 0 1 .907.58l6.8 14.67a6.5 6.5 0 1 1-1.814.842L27.36 12H23v-2zm7.182 18.877a3.5 3.5 0 1 0 1.814-.841l1.411 3.043a1 1 0 0 1-1.814.841z"
    clip-rule="evenodd"
  />
  <path
    fill-rule="evenodd"
    d="M16.924 32.5A6.502 6.502 0 0 1 4 31.5a6.5 6.5 0 0 1 12.924-1H20V29a2 2 0 0 1 2-2h6v4a2 2 0 0 1-2 2h-4c-.514 0-.983-.194-1.338-.513a1 1 0 0 1-.162.013zM10.5 35a3.5 3.5 0 1 1 3.355-4.5H10.5a1 1 0 0 0 0 2h3.355A3.5 3.5 0 0 1 10.5 35"
    clip-rule="evenodd"
  />
  <path d="m28.053 23.894 1-2a2 2 0 0 0 0-1.788l-1-2A2 2 0 0 0 26.263 17h-3.28a8 8 0 0 0-2.563.422l-3.145 1.063a1 1 0 0 0-.494 1.528l3.253 4.567a1 1 0 0 0 .815.42h5.415a2 2 0 0 0 1.789-1.106" />
  <path d="M13.884 19.383a1 1 0 0 0-.788-.383H5a1 1 0 0 0-1 1v1.605a1 1 0 0 0 .89.994l11.427 1.27a.5.5 0 0 0 .45-.806z" />
  <path d="M37.65 15.213a.5.5 0 0 0-.41-.213h-3.931a.5.5 0 0 0-.447.724l2 4a.5.5 0 0 0 .447.276h4.73a.5.5 0 0 0 .41-.787z" />
</svg>
